lib/brands/icons/azure-active-directory.svg

<svg xmlns="http://www.w3.org/2000/svg" fill="none" aria-hidden="true" viewBox="0 0 48 48"><g id="azure-active-directory-Icon"><g id="Group"><path id="path1008" fill="#00BEF2" d="M23.9807 6C24.0188 6 24.057 6.0477 24.1143 6.13357C24.162 6.20989 28.1786 11.0279 33.0443 16.8381C37.91 22.6484 41.8789 27.4282 41.8598 27.4569C41.8503 27.4855 37.9768 30.6625 33.2542 34.5074C28.5316 38.3523 24.515 41.6247 24.3337 41.7773C24.0189 42.0349 23.9998 42.0445 23.8853 41.93C23.8185 41.8632 19.7924 38.5717 14.9362 34.6123C10.08 30.653 6.12064 27.3901 6.13972 27.3424C6.1588 27.2947 10.1468 22.5339 15.022 16.7523C19.8973 10.9707 23.8853 6.19081 23.9044 6.11449C23.9234 6.03816 23.9521 6 23.9807 6Z"/><path id="path923" fill="white" d="M23.3223 36.2724C22.769 36.072 22.1011 35.4996 21.8244 34.9653C21.481 34.307 21.5096 33.2766 21.8912 32.4561C22.187 31.8455 22.187 31.8265 21.9962 31.6834C21.8912 31.607 20.6223 30.901 19.1912 30.1282C17.7601 29.3554 16.5103 28.6781 16.4245 28.6304C16.31 28.5636 16.1192 28.6304 15.7757 28.8498C14.6594 29.5558 13.4955 29.4795 12.5796 28.6304C11.9213 28.0198 11.7305 27.5904 11.7305 26.7127C11.7305 25.8636 11.9022 25.4247 12.446 24.8809C13.1806 24.1463 14.1633 23.8982 15.1078 24.213C15.623 24.3848 15.6326 24.3848 15.957 24.1367C16.3386 23.8505 19.4011 21.0551 20.8799 19.6526L21.9008 18.6795L21.5955 18.0403C20.9753 16.7523 21.2902 15.3212 22.3778 14.4625C22.9693 13.995 23.4082 13.8519 24.2573 13.8519C26.2418 13.8519 27.6251 15.9318 26.881 17.7922C26.6806 18.3074 26.6806 18.3169 26.8714 18.6318C27.0336 18.9085 29.7909 22.2381 31.2506 23.9364C31.5082 24.2321 31.7944 24.4706 31.8898 24.4706C31.9852 24.4706 32.3096 24.3752 32.6149 24.2608C34.0364 23.6979 35.5343 24.3275 36.1258 25.7395C36.5075 26.6459 36.1735 27.8671 35.3626 28.6017C34.7902 29.1169 34.3704 29.2791 33.6071 29.2791C33.0728 29.2791 32.8725 29.2219 32.3096 28.9166C31.8898 28.6876 31.5654 28.5731 31.4319 28.6113C31.2029 28.6685 27.6824 31.0823 26.9001 31.712C26.423 32.1031 26.3849 32.2463 26.6329 32.8282C26.8714 33.4007 26.8428 34.2975 26.5757 34.8604C26.2799 35.4805 25.5453 36.1007 24.9061 36.2915C24.2573 36.4728 23.8661 36.4728 23.3223 36.2724V36.2724ZM23.4845 25.7586V20.3205L23.1792 19.9007C23.0075 19.6717 22.8453 19.4809 22.8167 19.4809C22.6926 19.4809 16.5294 25.0812 16.5294 25.1957C16.5294 25.2244 16.6248 25.5106 16.7393 25.8159C16.8538 26.1307 16.9396 26.5791 16.9301 26.8367C16.9206 27.0943 16.9206 27.3805 16.9206 27.4759C16.9301 27.6954 18.9909 29.012 22.082 30.7961C22.9312 31.2922 23.2269 31.4162 23.3319 31.3304C23.4559 31.2254 23.4845 30.1664 23.4845 25.7586V25.7586ZM26.0987 30.5671C30.182 28.0007 30.9453 27.4855 30.993 27.2947C31.0216 27.1802 31.0598 26.7318 31.0693 26.2834L31.0979 25.482L29.0181 23.0109C26.7856 20.3682 25.9651 19.4714 25.7743 19.4714C25.7075 19.4714 25.3736 19.6622 25.0301 19.8911L24.4004 20.3109L24.429 25.7395C24.4577 30.6053 24.4958 31.4258 24.6771 31.4258C24.6962 31.4353 25.3449 31.0441 26.0987 30.5671V30.5671Z"/></g></g></svg>

<svg xmlns="http://www.w3.org/2000/svg" fill="none" aria-hidden="true" viewBox="0 0 48 48"><path fill="#00BEF2" d="M23.98 6c.04 0 .077.048.134.134.048.076 4.065 4.894 8.93 10.704 4.866 5.81 8.835 10.59 8.816 10.619-.01.028-3.883 3.206-8.606 7.05a5591.06 5591.06 0 0 0-8.92 7.27c-.315.258-.334.267-.448.153-.067-.067-4.093-3.358-8.95-7.318-4.856-3.959-8.815-7.222-8.796-7.27.019-.047 4.007-4.808 8.882-10.59 4.876-5.781 8.864-10.561 8.883-10.638.019-.076.047-.114.076-.114Z"/><path fill="#fff" d="M23.323 36.272c-.554-.2-1.222-.772-1.498-1.307-.344-.658-.315-1.688.067-2.509.295-.61.295-.63.104-.773-.104-.076-1.373-.782-2.804-1.555a879.97 879.97 0 0 1-2.767-1.498c-.115-.066-.306 0-.65.22-1.115.706-2.28.63-3.195-.22-.659-.61-.85-1.04-.85-1.917 0-.85.172-1.288.716-1.832.735-.735 1.718-.983 2.662-.668.515.172.525.172.85-.076.38-.287 3.443-3.082 4.922-4.484l1.021-.973-.305-.64c-.62-1.288-.306-2.719.782-3.577.592-.468 1.03-.611 1.88-.611 1.984 0 3.367 2.08 2.623 3.94-.2.515-.2.525-.01.84.163.276 2.92 3.606 4.38 5.304.257.296.544.535.64.535.095 0 .419-.096.724-.21 1.422-.563 2.92.067 3.511 1.479.382.906.048 2.127-.763 2.862-.573.515-.992.677-1.756.677-.534 0-.734-.057-1.297-.362-.42-.23-.744-.344-.878-.306-.229.058-3.75 2.471-4.532 3.101-.477.391-.515.534-.267 1.116.239.573.21 1.47-.057 2.032-.296.62-1.03 1.24-1.67 1.431-.648.182-1.04.182-1.583-.019Zm.162-10.513V20.32l-.305-.42c-.172-.228-.334-.42-.363-.42-.124 0-6.287 5.601-6.287 5.716 0 .028.095.315.21.62.114.315.2.763.19 1.02-.01.258-.01.545-.01.64.01.22 2.071 1.536 5.162 3.32.85.496 1.145.62 1.25.534.124-.105.153-1.164.153-5.571Zm2.614 4.808c4.083-2.566 4.846-3.082 4.894-3.272.029-.115.067-.563.077-1.012l.028-.801-2.08-2.471c-2.232-2.643-3.053-3.54-3.244-3.54-.066 0-.4.191-.744.42l-.63.42.03 5.428c.028 4.866.066 5.687.247 5.687.02.01.668-.382 1.422-.859Z"/></svg>
